X: 22
T:Grandfather's Tune
M:4/4
L:1/8
S:Trad
K:D
AG |F2A2 B2c2|dcde f2 a2|g2f2 e2d2|c2B2A2G2|
   |F2A2 B2c2|dcde f2 a2|g2f2 eA Bc |[1 d4d2 AG |[2Bc d2d2 cd|]
   |e2A2 e2A2|g2f2 e2A2|g2f2 e2d2|c2B2 A2G2|
   |F2A2 B2c2|dcde f2a2|g2f2 eA Bc |[1d4 d2 cd |[2 d4 d2 AG|]
